build/category/PensionOutline.svg

<svg xmlns="http://www.w3.org/2000/svg" fill="none" viewBox="0 0 24 24" focusable="false"><path d="M0 0H24V24H0z"/><path fill="#74767B" fill-rule="evenodd" d="M6.68811 3.58191C6.01801 3.58191 5.47479 4.12513 5.47479 4.79523L5.47479 8.1892C5.47479 8.28125 5.40017 8.35587 5.30812 8.35587L5.24089 8.35587C4.04427 8.35587 3.07422 9.32591 3.07422 10.5225L3.07422 13.0011C3.07422 14.1977 4.04427 15.1678 5.24089 15.1678L5.34754 15.1678C5.42902 15.1678 5.49855 15.2267 5.51194 15.3071L6.06718 18.6407C6.23802 19.6663 7.12537 20.4181 8.16516 20.4181C9.33681 20.4181 10.2872 19.4707 10.292 18.3002L10.2932 18.2993C10.299 18.2952 10.3069 18.2916 10.3156 18.2899C10.3236 18.2884 10.3312 18.2886 10.339 18.2907C11.1209 18.4991 11.9526 18.6111 12.8139 18.6111C13.7832 18.6111 14.715 18.4692 15.5807 18.2077C15.6093 18.1991 15.6431 18.2042 15.6697 18.2223C15.6816 18.2305 15.6865 18.2377 15.6878 18.24C15.6882 18.2407 15.6888 18.2416 15.6888 18.2455C15.6888 19.4453 16.6614 20.418 17.8612 20.418C18.8655 20.418 19.7556 19.726 19.9622 18.7215C20.5807 15.715 20.9514 12.5329 20.9683 12.3865C20.9738 12.339 20.974 12.2906 20.9689 12.2424C20.984 12.0712 20.9917 11.8983 20.9917 11.7241C20.9917 8.08669 18.043 5.13797 14.4055 5.13797L9.50847 5.13797C9.48269 5.13797 9.4447 5.13045 9.39243 5.09691C9.33777 5.06184 9.2771 5.00366 9.223 4.92414C8.67272 4.11534 7.74281 3.58191 6.68811 3.58191ZM6.77479 8.1892L6.77479 4.884C7.34523 4.91155 7.84489 5.20963 8.14817 5.65541C8.41009 6.04036 8.87873 6.43797 9.50847 6.43797L14.4055 6.43797C17.325 6.43797 19.6917 8.80466 19.6917 11.7241C19.6917 11.8936 19.6824 12.0612 19.6642 12.2265C19.6593 12.2706 19.659 12.3142 19.6627 12.3568C19.5886 12.9751 19.2373 15.7939 18.6889 18.4596C18.6108 18.839 18.2699 19.118 17.8612 19.118C17.3794 19.118 16.9888 18.7274 16.9888 18.2455C16.9888 17.278 16.0219 16.7164 15.2048 16.9633C14.4616 17.1878 13.6564 17.3111 12.8139 17.3111C12.0653 17.3111 11.3462 17.2137 10.6738 17.0345C9.88676 16.8247 8.99203 17.3769 8.99203 18.2912C8.99203 18.7479 8.62183 19.1181 8.16516 19.1181C7.76091 19.1181 7.41593 18.8258 7.34952 18.4271L6.79427 15.0935C6.67647 14.3862 6.06456 13.8678 5.34754 13.8678L5.24089 13.8678C4.76224 13.8678 4.37422 13.4798 4.37422 13.0011L4.37422 10.5225C4.37422 10.0439 4.76224 9.65586 5.24089 9.65586L5.30812 9.65586C6.11814 9.65586 6.77479 8.99921 6.77479 8.1892ZM10.7118 7.9C10.3775 7.9 10.1065 8.171 10.1065 8.50529C10.1065 8.83958 10.3775 9.11057 10.7118 9.11057L14.8758 9.11057C15.2101 9.11057 15.4811 8.83958 15.4811 8.50529C15.4811 8.171 15.2101 7.9 14.8758 7.9L10.7118 7.9Z"/></svg>

<svg xmlns="http://www.w3.org/2000/svg" fill="none" viewBox="0 0 24 24" focusable="false"><path fill="#74767B" fill-rule="evenodd" d="M6.68 3.58c-.67 0-1.21.54-1.21 1.21v3.39c0 .1-.07.17-.17.17h-.06c-1.2 0-2.17.97-2.17 2.17V13c0 1.19.97 2.16 2.17 2.16h.1c.08 0 .15.06.17.14l.55 3.34a2.13 2.13 0 0 0 2.1 1.77c1.17 0 2.12-.94 2.13-2.11v-.01s.01 0 .02-.01c.01 0 .02 0 .02.01.79.2 1.62.32 2.48.32.97 0 1.9-.15 2.77-.41.02-.01.06 0 .08.02.02.01.02.01.02.02 0 1.2.98 2.17 2.18 2.17 1 0 1.89-.69 2.1-1.69.62-3.01.99-6.19 1-6.34a.3.3 0 0 0 0-.14c.02-.17.03-.35.03-.52a6.59 6.59 0 0 0-6.59-6.59H9.5c-.02 0-.06 0-.11-.04a.46.46 0 0 1-.17-.17 3.06 3.06 0 0 0-2.54-1.34m.09 4.6v-3.3c.57.03 1.07.32 1.37.77.27.39.73.78 1.36.78h4.9c2.92 0 5.29 2.37 5.29 5.29 0 .17-.01.34-.03.5-.01.05-.01.09 0 .13-.08.62-.43 3.44-.98 6.1a.82.82 0 0 1-.82.66c-.49 0-.88-.39-.88-.87 0-.97-.96-1.53-1.78-1.28-.74.22-1.55.35-2.39.35-.75 0-1.47-.1-2.14-.28-.79-.21-1.68.34-1.68 1.26 0 .45-.37.82-.83.82-.4 0-.75-.29-.82-.69l-.55-3.33a1.47 1.47 0 0 0-1.45-1.23h-.1c-.48 0-.87-.39-.87-.86v-2.48c0-.48.39-.87.87-.87h.06c.81 0 1.47-.66 1.47-1.47m3.94-.29c-.34 0-.61.28-.61.61s.27.61.61.61h4.16c.34 0 .61-.28.61-.61s-.27-.61-.61-.61z"/></svg>
